X:185
M: C|
L:1/8
K:D
f/g/ | agfe dcBA | B>cdF EFEF | GABc defe | dBAF D3 f/g/ |
af de/f/ ge cd/e/ | fd Bc/d/ ecAc | defe defe | dBAF E3 |]

